assets/icons/utility/database.svg

<?xml version="1.0"?><svg xmlns="http://www.w3.org/2000/svg" width="52" height="52" viewBox="0 0 52 52"><path fill="#fff" d="m45.4 9c0-3.8-8.7-6.9-19.4-6.9s-19.4 3.1-19.4 6.9v2.4c0 3.8 8.7 6.9 19.4 6.9s19.4-3.1 19.4-6.9v-2.4z m-38.8 8c0 3 8.7 5.4 19.4 5.4s19.4-2.4 19.4-5.4v4.9c0 3.8-8.7 6.9-19.4 6.9s-19.4-3.1-19.4-6.9v-4.9z m0 0c0 3 8.7 5.4 19.4 5.4s19.4-2.4 19.4-5.4v4.9c0 3.8-8.7 6.9-19.4 6.9s-19.4-3.1-19.4-6.9v-4.9z m0 10.5c0 3 8.7 5.4 19.4 5.4s19.4-2.4 19.4-5.4v4.9c0 3.8-8.7 6.9-19.4 6.9s-19.4-3-19.4-6.8v-5z m0 10.6c0 3 8.7 5.4 19.4 5.4s19.4-2.4 19.4-5.4v4.9c0 3.8-8.7 6.9-19.4 6.9s-19.4-3.1-19.4-6.9v-4.9z"></path></svg>

<svg xmlns="http://www.w3.org/2000/svg" x="0px" y="0px"
	 width="52px" height="52px" viewBox="0 0 52 52" enable-background="new 0 0 52 52" xml:space="preserve">
<path fill="#FFFFFF" d="M45.4,9c0-3.8-8.7-6.9-19.4-6.9S6.6,5.2,6.6,9v2.4c0,3.8,8.7,6.9,19.4,6.9s19.4-3.1,19.4-6.9V9z"/>
<path fill="#FFFFFF" d="M6.6,17c0,3,8.7,5.4,19.4,5.4S45.4,20,45.4,17v4.9c0,3.8-8.7,6.9-19.4,6.9S6.6,25.7,6.6,21.9V17z"/>
<path fill="#FFFFFF" d="M6.6,17c0,3,8.7,5.4,19.4,5.4S45.4,20,45.4,17v4.9c0,3.8-8.7,6.9-19.4,6.9S6.6,25.7,6.6,21.9V17z"/>
<path fill="#FFFFFF" d="M6.6,27.5c0,3,8.7,5.4,19.4,5.4s19.4-2.4,19.4-5.4v4.9c0,3.8-8.7,6.9-19.4,6.9s-19.4-3-19.4-6.8V27.5z"/>
<path fill="#FFFFFF" d="M6.6,38.1c0,3,8.7,5.4,19.4,5.4s19.4-2.4,19.4-5.4V43c0,3.8-8.7,6.9-19.4,6.9S6.6,46.8,6.6,43V38.1z"/>
</svg>
